src/public/img/logo.svg

<svg xmlns="http://www.w3.org/2000/svg" xmlns:xlink="http://www.w3.org/1999/xlink" version="1.1" width="3216.6064981949457" height="996.3898916967509" viewBox="0 0 3216.6064981949457 996.3898916967509">
			
			<g transform="scale(10.830324909747292) translate(10, 10)">
				<defs id="SvgjsDefs1658"/><g id="SvgjsG1659" featureKey="symbolFeature-0" transform="matrix(0.7997244872778746,0,0,0.7997244872778746,-11.620796634460241,-3.973670705350533)" fill="#000"><path xmlns="http://www.w3.org/2000/svg" style="baseline-shift:baseline;block-progression:tb;color:;direction:ltr;text-indent:0;enable-background:accumulate;text-transform:none;" d="M27.5,4.9688c-7.132,0-12.969,5.9302-12.969,13.062,0,5.736,3.777,10.611,8.969,12.313v39.281c-5.192,1.716-8.969,6.67-8.969,12.406,0,7.133,5.837,12.969,12.969,12.969s13-5.836,13-12.969c0-5.736-3.808-10.69-9-12.406v-0.625c0-5.929,1.815-8.24,5.156-10.344,3.341-2.103,8.602-3.393,14.282-4.781,5.679-1.388,11.839-2.905,16.937-6.719,4.632-3.465,7.961-9.08,8.531-16.781,5.24-1.673,9.094-6.573,9.094-12.344,0-7.132-5.868-13.062-13-13.062s-12.969,5.9302-12.969,13.062c0,5.701,3.732,10.551,8.875,12.281-0.422,5.483-2.394,8.262-5.344,10.469-3.339,2.499-8.429,3.982-14,5.344-5.57,1.362-11.559,2.572-16.656,5.781-0.306,0.193-0.61,0.382-0.906,0.594v-22.156c5.192-1.702,9-6.577,9-12.313,0-7.132-5.868-13.062-13-13.062zm0,8.0312c2.809,0,5.031,2.222,5.031,5.031s-2.222,4.938-5.031,4.938-5-2.129-5-4.938,2.191-5.031,5-5.031zm45,0c2.809,0,5.031,2.222,5.031,5.031s-2.222,4.938-5.031,4.938-5-2.129-5-4.938,2.191-5.031,5-5.031zm-45,64c2.809,0,5.031,2.222,5.031,5.031s-2.222,4.938-5.031,4.938-5-2.129-5-4.938,2.191-5.031,5-5.031z"/></g><g id="SvgjsG1660" featureKey="nameFeature-0" transform="matrix(1.3177761642490882,0,0,1.3177761642490882,73.23471905163387,-13.059422182015823)" fill="#000"><path d="M20.629 11.428999999999998 l7.4286 0 l0 28.571 l-7.4286 0 l0 -11.143 l-10.286 0 l0 11.143 l-7.4857 0 l0.057143 -28.571 l7.4286 0 l0 11.143 l10.286 0 l0 -11.143 z M54.62828571428571 11.428999999999998 l4.2857 4.2857 l0 20 l-4.2857 4.2857 l-16.571 0 l-4.2857 -4.2857 l0 -20 l4.2857 -4.2857 l16.571 0 z M51.485285714285716 33.7143 l0 -16 l-10.286 0 l0 16 l10.286 0 z M85.77142857142857 11.428999999999998 l7.4286 0 l0 28.571 l-7.4286 0 l0 -16 l-5.0286 9.7143 l-3.7143 0 l-4.9714 -9.7143 l0 16 l-7.4286 0 l0 -28.571 l7.4286 0 l6.8571 12.971 z M123.20014285714285 17.714 l-16.857 0 l0 4.8571 l14.571 0 l0 6.2857 l-14.571 0 l0 4.8571 l16.857 0 l0 6.2857 l-20 0 l-4.2857 -4.2857 l0 -24.286 l24.286 0 l0 6.2857 z M154.62814285714285 15.713999999999999 l0 10 l-4.2857 4.2857 l4.2857 6.5714 l0 3.4286 l-6.8571 0 l-5.9429 -9.7143 l-5.4857 0 l0 9.7143 l-7.4286 0 l0 -28.571 l21.429 0 z M147.20014285714285 24 l0 -6.2857 l-10.857 0 l0 6.2857 l10.857 0 z"/></g><g id="SvgjsG1661" featureKey="nameFeature-1" transform="matrix(0.754311138612038,0,0,0.754311138612038,74.84493281225829,41.37980318574912)" fill="#000"><path d="M23.714 11.428999999999998 l4.2857 4.2857 l0 20 l-4.2857 4.2857 l-20.857 0 l0 -28.571 l20.857 0 z M20.571 33.7143 l0 -16 l-10.286 0 l0 16 l10.286 0 z M58.00014285714286 17.714 l-16.857 0 l0 4.8571 l14.571 0 l0 6.2857 l-14.571 0 l0 4.8571 l16.857 0 l0 6.2857 l-20 0 l-4.2857 -4.2857 l0 -24.286 l24.286 0 l0 6.2857 z M82.28614285714286 11.428999999999998 l6.8571 0 l0 3.4286 l-9.5429 25.143 l-7.7143 0 l-9.6 -25.143 l0 -3.4286 l6.8571 0 l6.5714 18.571 z M117.71442857142857 17.714 l-16.857 0 l0 4.8571 l14.571 0 l0 6.2857 l-14.571 0 l0 4.8571 l16.857 0 l0 6.2857 l-20 0 l-4.2857 -4.2857 l0 -24.286 l24.286 0 l0 6.2857 z M123.42852857142857 35.7143 l0 -24.286 l7.4286 0 l0 22.286 l15.429 0 l0 6.2857 l-18.571 0 z M171.42828571428572 11.428999999999998 l4.2857 4.2857 l0 20 l-4.2857 4.2857 l-16.571 0 l-4.2857 -4.2857 l0 -20 l4.2857 -4.2857 l16.571 0 z M168.28528571428572 33.7143 l0 -16 l-10.286 0 l0 16 l10.286 0 z M181.4285285714286 40 l0 -28.571 l20.857 0 l4.2857 4.2857 l0 12 l-4.2857 4.2857 l-13.429 0 l0 8 l-7.4286 0 z M188.85742857142858 25.714 l10.286 0 l0 -8 l-10.286 0 l0 8 z M236.57157142857145 17.714 l-16.857 0 l0 4.8571 l14.571 0 l0 6.2857 l-14.571 0 l0 4.8571 l16.857 0 l0 6.2857 l-20 0 l-4.2857 -4.2857 l0 -24.286 l24.286 0 l0 6.2857 z M267.99957142857147 15.713999999999999 l0 10 l-4.2857 4.2857 l4.2857 6.5714 l0 3.4286 l-6.8571 0 l-5.9429 -9.7143 l-5.4857 0 l0 9.7143 l-7.4286 0 l0 -28.571 l21.429 0 z M260.5715714285715 24 l0 -6.2857 l-10.857 0 l0 6.2857 l10.857 0 z"/></g>
			</g>
		</svg>

<?xml version="1.0" encoding="utf-8"?>
<!-- Generator: Adobe Illustrator 16.0.3, SVG Export Plug-In . SVG Version: 6.00 Build 0)  -->
<!DOCTYPE svg PUBLIC "-//W3C//DTD SVG 1.1//EN" "http://www.w3.org/Graphics/SVG/1.1/DTD/svg11.dtd">
<svg version="1.1" id="Capa_1" xmlns="http://www.w3.org/2000/svg" xmlns:xlink="http://www.w3.org/1999/xlink" x="0px" y="0px"
	 width="3216.605px" height="996.39px" viewBox="0 0 3216.605 996.39" enable-background="new 0 0 3216.605 996.39"
	 xml:space="preserve">
<g transform="scale(10.830324909747292) translate(10, 10)">
	<g id="SvgjsG1659" transform="matrix(0.7997244872778746,0,0,0.7997244872778746,-11.620796634460241,-3.973670705350533)">
		<path fill="#0F81C7" d="M27.5,4.969c-7.132,0-12.969,5.93-12.969,13.062c0,5.736,3.777,10.611,8.969,12.313v39.281
			c-5.192,1.716-8.969,6.67-8.969,12.406C14.531,89.164,20.368,95,27.5,95s13-5.836,13-12.969c0-5.736-3.808-10.69-9-12.406V69
			c0-5.929,1.815-8.24,5.156-10.344c3.341-2.103,8.602-3.393,14.282-4.781c5.679-1.388,11.839-2.905,16.937-6.719
			c4.632-3.465,7.961-9.08,8.531-16.781c5.24-1.673,9.094-6.573,9.094-12.344c0-7.132-5.868-13.062-13-13.062
			c-7.132,0-12.969,5.93-12.969,13.062c0,5.701,3.732,10.551,8.875,12.281c-0.422,5.483-2.394,8.262-5.344,10.469
			c-3.339,2.499-8.429,3.982-14,5.344c-5.57,1.362-11.559,2.572-16.656,5.781c-0.306,0.193-0.61,0.382-0.906,0.594V30.344
			c5.192-1.702,9-6.577,9-12.313C40.5,10.899,34.632,4.969,27.5,4.969z M27.5,13c2.809,0,5.031,2.222,5.031,5.031
			s-2.222,4.938-5.031,4.938c-2.809,0-5-2.129-5-4.938S24.691,13,27.5,13L27.5,13z M72.5,13c2.809,0,5.031,2.222,5.031,5.031
			s-2.222,4.938-5.031,4.938c-2.809,0-5-2.129-5-4.938S69.691,13,72.5,13z M27.5,77c2.809,0,5.031,2.222,5.031,5.031
			c0,2.809-2.222,4.938-5.031,4.938c-2.809,0-5-2.129-5-4.938C22.5,79.222,24.691,77,27.5,77L27.5,77z"/>
	</g>
	<g id="SvgjsG1660" transform="matrix(1.3177761642490882,0,0,1.3177761642490882,73.23471905163387,-13.059422182015823)">
		<path fill="#0F81C7" d="M20.629,11.429h7.429V40h-7.429V28.857H10.343V40H2.857l0.057-28.571h7.429v11.143h10.286V11.429
			L20.629,11.429z M54.628,11.429l4.286,4.286v20L54.628,40H38.057l-4.286-4.286v-20l4.286-4.286H54.628z M51.485,33.714v-16H41.199
			v16H51.485z M85.771,11.429H93.2V40h-7.429V24l-5.029,9.714h-3.714L72.057,24v16h-7.429V11.429h7.429L78.914,24.4L85.771,11.429z
			 M123.2,17.714h-16.857v4.857h14.571v6.286h-14.571v4.857H123.2V40h-20l-4.286-4.286V11.428H123.2L123.2,17.714L123.2,17.714z
			 M154.628,15.714v10L150.342,30l4.286,6.571V40h-6.857l-5.943-9.714h-5.486V40h-7.429V11.429h21.429L154.628,15.714z M147.2,24
			v-6.286h-10.857V24H147.2z"/>
	</g>
	<g id="SvgjsG1661" transform="matrix(0.754311138612038,0,0,0.754311138612038,74.84493281225829,41.37980318574912)">
		<path fill="#0F81C7" d="M23.714,11.429L28,15.715v20L23.714,40H2.857V11.429L23.714,11.429L23.714,11.429z M20.571,33.714v-16
			H10.285v16H20.571z M58,17.714H41.143v4.857h14.571v6.286H41.143v4.857H58V40H38l-4.286-4.286V11.428H58L58,17.714L58,17.714z
			 M82.286,11.429h6.857v3.429L79.6,40.001h-7.714l-9.6-25.143v-3.429h6.857L75.714,30L82.286,11.429z M117.714,17.714h-16.857
			v4.857h14.571v6.286h-14.571v4.857h16.857V40h-20l-4.286-4.286V11.428h24.286L117.714,17.714L117.714,17.714z M123.429,35.714
			V11.428h7.429v22.286h15.429V40h-18.571L123.429,35.714z M171.428,11.429l4.286,4.286v20L171.428,40h-16.571l-4.286-4.286v-20
			l4.286-4.286H171.428L171.428,11.429z M168.285,33.714v-16h-10.286v16H168.285z M181.429,40V11.429h20.857l4.286,4.286v12
			L202.286,32h-13.429v8L181.429,40L181.429,40z M188.857,25.714h10.286v-8h-10.286V25.714z M236.572,17.714h-16.857v4.857h14.571
			v6.286h-14.571v4.857h16.857V40h-20l-4.286-4.286V11.428h24.286L236.572,17.714L236.572,17.714z M268,15.714v10L263.714,30
			L268,36.571V40h-6.857l-5.943-9.714h-5.486V40h-7.429V11.429h21.429L268,15.714z M260.572,24v-6.286h-10.857V24H260.572z"/>
	</g>
</g>
</svg>
